!!!OTL: Ritter und Maid. / Alte schlesische Melodie.
!!!ARE: Europa, Mitteleuropa, Deutschland
!!!SCT: A0069B
!!!TXL: @@GMH
!!!YEM: Copyright 1995, estate of Helmut Schaffrath.
**kern	**text
*M4/4	*
*met(c)	*
*k[b-e-]	*
*g:	*
{4g	Es
=1	=1
4dd	liegt
4dd	ein
4dd	Schloß
4b-	in
=2	=2
4ff	Oe-
8ffL	-ſter-
8ee-J	.
4dd}	-reich
{4ff	⁊c.
=3	=3
4gg	.
4dd	.
4cc	.
4b-	.
=4	=4
2cc	.
4dd;}	.
{4ff	.
=5	=5
4cc	.
8ffL	.
8ee-J	.
4dd	.
4cc	.
=6	=6
4b-/	.
4a	.
4g}	.
{4a	.
=7	=7
4b-	.
4cc	.
4dd	.
4b-	.
=8	=8
2a	.
4g}	.
==	==
!!!GTL: Balladen und Romanzen (erzählende Volkslieder)
!!!AGN: Romanze, Ballade, Lied
!! Alte schlesische Melodie, aus: Graeters Ztschr. Idunna 1812 No. 12
!!!ONB: ESAC (Essen Associative Code) Database: ALTDEU
!!!AMT: simple quadruple
!!!AIN: vox
!!!EED: Helmut Schaffrath
!!!EEV: 1.0
!!!URL-scan: https://rosdok.uni-rostock.de/mcrviewer/recordIdentifier/rosdok_ppn738218359/iview2/phys_0226.iview2?x=-2091.770685579196&y=0&scale=0.2411630558722919&rotation=0&layout=singlePageLayout
!!!ENC: Anna Maria Matuszewska
!!!EEV: 2024/22/02
*-	*-
